svgs/queen_light.svg

<?xml version="1.0" encoding="UTF-8" standalone="no"?>
<svg
   xmlns:dc="http://purl.org/dc/elements/1.1/"
   xmlns:cc="http://creativecommons.org/ns#"
   xmlns:rdf="http://www.w3.org/1999/02/22-rdf-syntax-ns#"
   xmlns:svg="http://www.w3.org/2000/svg"
   xmlns="http://www.w3.org/2000/svg"
   xmlns:sodipodi="http://sodipodi.sourceforge.net/DTD/sodipodi-0.dtd"
   xmlns:inkscape="http://www.inkscape.org/namespaces/inkscape"
   version="1.1"
   width="80"
   height="80"
   id="svg22"
   sodipodi:docname="queen_light.svg"
   inkscape:version="0.92.4 (5da689c313, 2019-01-14)">
  <metadata
     id="metadata28">
    <rdf:RDF>
      <cc:Work
         rdf:about="">
        <dc:format>image/svg+xml</dc:format>
        <dc:type
           rdf:resource="http://purl.org/dc/dcmitype/StillImage" />
        <dc:title></dc:title>
      </cc:Work>
    </rdf:RDF>
  </metadata>
  <defs
     id="defs26" />
  <sodipodi:namedview
     pagecolor="#ffffff"
     bordercolor="#666666"
     borderopacity="1"
     objecttolerance="10"
     gridtolerance="10"
     guidetolerance="10"
     inkscape:pageopacity="0"
     inkscape:pageshadow="2"
     inkscape:window-width="1920"
     inkscape:window-height="1017"
     id="namedview24"
     showgrid="false"
     inkscape:pagecheckerboard="true"
     inkscape:zoom="5.2444444"
     inkscape:cx="22.5"
     inkscape:cy="22.5"
     inkscape:window-x="-8"
     inkscape:window-y="-8"
     inkscape:window-maximized="1"
     inkscape:current-layer="svg22" />
  <g
     style="opacity:1;fill:#ffffff;fill-opacity:1;fill-rule:evenodd;stroke:#000000;stroke-width:1.5;stroke-linecap:round;stroke-linejoin:round;stroke-miterlimit:4;stroke-dasharray:none;stroke-opacity:1"
     id="g20"
     transform="matrix(1.8279747,0,0,1.8279747,-1.1294307,-0.90501306)">
    <path
       d="m 9,13 a 2,2 0 1 1 -4,0 2,2 0 1 1 4,0 z"
       transform="translate(-1,-1)"
       id="path2"
       inkscape:connector-curvature="0" />
    <path
       d="m 9,13 a 2,2 0 1 1 -4,0 2,2 0 1 1 4,0 z"
       transform="translate(15.5,-5.5)"
       id="path4"
       inkscape:connector-curvature="0" />
    <path
       d="m 9,13 a 2,2 0 1 1 -4,0 2,2 0 1 1 4,0 z"
       transform="translate(32,-1)"
       id="path6"
       inkscape:connector-curvature="0" />
    <path
       d="m 9,13 a 2,2 0 1 1 -4,0 2,2 0 1 1 4,0 z"
       transform="translate(7,-4)"
       id="path8"
       inkscape:connector-curvature="0" />
    <path
       d="m 9,13 a 2,2 0 1 1 -4,0 2,2 0 1 1 4,0 z"
       transform="translate(24,-4)"
       id="path10"
       inkscape:connector-curvature="0" />
    <path
       d="m 9,26 c 8.5,-1.5 18.5,-1.5 27,0 L 38,14 31,25 V 11 l -5.5,13.5 -3,-15 -3,15 L 14,11 V 25 L 7,14 Z"
       style="stroke-linecap:butt"
       id="path12"
       inkscape:connector-curvature="0" />
    <path
       d="m 9,26 c 0,2 1.5,2 2.5,4 1,1.5 1,1 0.5,3.5 -1.5,1 -1,2.5 -1,2.5 -1.5,1.5 0,2.5 0,2.5 6.5,1 16.5,1 23,0 0,0 1.5,-1 0,-2.5 0,0 0.5,-1.5 -1,-2.5 -0.5,-2.5 -0.5,-2 0.5,-3.5 1,-2 2.5,-2 2.5,-4 -8.5,-1.5 -18.5,-1.5 -27,0 z"
       style="stroke-linecap:butt"
       id="path14"
       inkscape:connector-curvature="0" />
    <path
       d="M 11.5,30 C 15,29 30,29 33.5,30"
       style="fill:none"
       id="path16"
       inkscape:connector-curvature="0" />
    <path
       d="m 12,33.5 c 6,-1 15,-1 21,0"
       style="fill:none"
       id="path18"
       inkscape:connector-curvature="0" />
  </g>
</svg>

<?xml version="1.0" encoding="UTF-8" standalone="no"?>
<!DOCTYPE svg PUBLIC "-//W3C//DTD SVG 1.1//EN" "http://www.w3.org/Graphics/SVG/1.1/DTD/svg11.dtd">
<svg xmlns="http://www.w3.org/2000/svg" version="1.1" width="45" height="45">
  <g style="opacity:1; fill:#ffffff; fill-opacity:1; fill-rule:evenodd; stroke:#000000; stroke-width:1.5; stroke-linecap:round;stroke-linejoin:round;stroke-miterlimit:4; stroke-dasharray:none; stroke-opacity:1;">
    <path d="M 9 13 A 2 2 0 1 1  5,13 A 2 2 0 1 1  9 13 z" transform="translate(-1,-1)"/>
    <path d="M 9 13 A 2 2 0 1 1  5,13 A 2 2 0 1 1  9 13 z" transform="translate(15.5,-5.5)"/>
    <path d="M 9 13 A 2 2 0 1 1  5,13 A 2 2 0 1 1  9 13 z" transform="translate(32,-1)"/>
    <path d="M 9 13 A 2 2 0 1 1  5,13 A 2 2 0 1 1  9 13 z" transform="translate(7,-4)"/>
    <path d="M 9 13 A 2 2 0 1 1  5,13 A 2 2 0 1 1  9 13 z" transform="translate(24,-4)"/>
    <path d="M 9,26 C 17.5,24.5 27.5,24.5 36,26 L 38,14 L 31,25 L 31,11 L 25.5,24.5 L 22.5,9.5 L 19.5,24.5 L 14,11 L 14,25 L 7,14 L 9,26 z " style="stroke-linecap:butt;"/>
    <path d="M 9,26 C 9,28 10.5,28 11.5,30 C 12.5,31.5 12.5,31 12,33.5 C 10.5,34.5 11,36 11,36 C 9.5,37.5 11,38.5 11,38.5 C 17.5,39.5 27.5,39.5 34,38.5 C 34,38.5 35.5,37.5 34,36 C 34,36 34.5,34.5 33,33.5 C 32.5,31 32.5,31.5 33.5,30 C 34.5,28 36,28 36,26 C 27.5,24.5 17.5,24.5 9,26 z" style="stroke-linecap:butt;"/>
    <path d="M 11.5,30 C 15,29 30,29 33.5,30" style="fill:none;"/>
    <path d="M 12,33.5 C 18,32.5 27,32.5 33,33.5" style="fill:none;"/>
  </g>
</svg>
